Newaita-dark/mimetypes/64/model.svg

<svg height="64pt" viewBox="0 0 64 64" width="64pt" xmlns="http://www.w3.org/2000/svg" xmlns:xlink="http://www.w3.org/1999/xlink"><linearGradient id="a"><stop offset="0" stop-opacity=".27451"/><stop offset="1" stop-opacity="0"/></linearGradient><linearGradient id="b" gradientUnits="userSpaceOnUse" x1="33.076089" x2="33.076089" xlink:href="#a" y1="56.067871" y2="58.71395875004"/><linearGradient id="c"><stop offset="0" stop-opacity=".313725"/><stop offset=".222222" stop-opacity=".27451"/><stop offset="1" stop-opacity="0"/></linearGradient><radialGradient id="d" cx="450.90894" cy="189.57936" gradientTransform="matrix(.00000035 -.156265 -.281277 -.0000002 98.969136 127.190669)" gradientUnits="userSpaceOnUse" r="21.166656" xlink:href="#c"/><radialGradient id="e" cx="450.90894" cy="189.57936" gradientTransform="matrix(-.00000035 .156265 .281277 .0000002 -36.786104 -15.054957)" gradientUnits="userSpaceOnUse" r="21.166656" xlink:href="#c"/><radialGradient id="f" cx="450.90894" cy="189.57936" gradientTransform="matrix(-.00000035 -.156265 .281277 -.0000002 -36.786104 127.190669)" gradientUnits="userSpaceOnUse" r="21.166656" xlink:href="#c"/><radialGradient id="g" cx="450.90894" cy="189.57936" gradientTransform="matrix(.00000035 .156265 -.281277 .0000002 98.969133 -15.054959)" gradientUnits="userSpaceOnUse" r="21.166656" xlink:href="#c"/><linearGradient id="h" gradientUnits="userSpaceOnUse" x1="31.091534" x2="31.091534" y1="56.06789909502" y2="5.79222444893"><stop offset="0" stop-color="#616161"/><stop offset="1" stop-color="#757575"/></linearGradient><linearGradient id="i" gradientTransform="matrix(.0597883 0 0 .218771 30.084845 -33.052579)" gradientUnits="userSpaceOnUse" x1="249.18942" x2="249.18942" xlink:href="#a" y1="233.5" y2="254.66669"/><linearGradient id="j"><stop offset="0" stop-color="#424242"/><stop offset="1" stop-color="#616161"/></linearGradient><linearGradient id="k" gradientUnits="userSpaceOnUse" x1="42.33739649992" x2="42.33739649992" xlink:href="#j" y1="56.067868" y2="5.79220824996"/><linearGradient id="l" gradientUnits="userSpaceOnUse" x1="960.000112" x2="960.000112" xlink:href="#j" y1="1695.118218" y2="175.11802806824"/><path d="m15.875 56.066406h30.429688v2.648438h-30.429688zm0 0" fill="url(#b)"/><path d="m46.304688 56.066406h5.292968v-2.644531h-5.292968zm0 0" fill="url(#d)"/><path d="m15.875 56.066406h-5.289062v2.648438h5.289062zm0 0" fill="url(#e)"/><path d="m15.875 56.066406h-5.289062v-2.644531h5.289062zm0 0" fill="url(#f)"/><path d="m46.304688 56.066406h5.292968v2.648438h-5.292968zm0 0" fill="url(#g)"/><path d="m37.085938 5.792969h-23.855469c-1.464844 0-2.644531 1.179687-2.644531 2.644531v44.984375c0 1.464844 1.179687 2.644531 2.644531 2.644531h35.722656c1.464844 0 2.644531-1.179687 2.644531-2.644531v-33.113281zm0 0" fill="url(#h)"/><path d="m37.046875 18.03125h12.566406l1.984375 1.984375v2.644531h-14.550781zm0 0" fill="url(#i)"/><path d="m10.585938 52.394531v1.027344c0 1.464844 1.179687 2.644531 2.644531 2.644531h35.722656c1.464844 0 2.644531-1.179687 2.644531-2.644531v-1.027344c0 1.464844-1.179687 2.644531-2.644531 2.644531h-35.722656c-1.464844 0-2.644531-1.179687-2.644531-2.644531zm0 0" fill-opacity=".235294"/><path d="m13.230469 5.792969c-1.464844 0-2.644531 1.179687-2.644531 2.644531v.992188c0-1.464844 1.179687-2.644532 2.644531-2.644532h23.855469l14.511718 14.515625v-.992187l-14.511718-14.515625zm0 0" fill="#fff" fill-opacity=".313725"/><path d="m51.597656 20.308594-14.511718-14.515625v11.867187c0 1.464844 1.179687 2.648438 2.644531 2.648438zm0 0" fill="url(#k)"/><path d="m37.085938 17.039062v.621094c0 1.464844 1.179687 2.648438 2.644531 2.648438h11.867187l-.621094-.625h-11.246093c-1.464844 0-2.644531-1.179688-2.644531-2.644532zm0 0" fill-opacity=".235294"/><path d="m37.085938 5.792969v.992187l13.519531 13.523438h.992187zm0 0" fill="#fff" fill-opacity=".392157"/><path d="m37.082031 5.605469c-.101562 0-.183593.085937-.183593.1875v11.867187c0 1.566406 1.265624 2.835938 2.832031 2.835938h11.867187c.078125-.003906.144532-.046875.175782-.117188.027343-.070312.011718-.152344-.042969-.203125l-14.515625-14.515625c-.035156-.035156-.082032-.054687-.132813-.054687zm.191407.640625 13.871093 13.871094h-11.414062c-1.367188 0-2.457031-1.089844-2.457031-2.457032zm0 0" fill="#212121"/><path d="m13.230469 5.605469c-1.566407 0-2.832031 1.265625-2.832031 2.832031v44.984375c0 1.566406 1.265624 2.832031 2.832031 2.832031h35.722656c1.566406 0 2.832031-1.265625 2.832031-2.832031v-33.113281c0-.050782-.019531-.097656-.054687-.132813l-14.515625-14.515625c-.035156-.035156-.082032-.054687-.128906-.054687zm0 .375h23.777343l14.402344 14.402343v33.039063c0 1.363281-1.09375 2.457031-2.457031 2.457031h-35.722656c-1.367188 0-2.457031-1.09375-2.457031-2.457031v-44.984375c0-1.363281 1.089843-2.457031 2.457031-2.457031zm0 0" fill="#212121"/><path d="m620.019539 695.130478c-11.101302 0-20.076823 8.857421-20.076823 19.958724v119.988543c0 11.101302 8.975521 20.076823 20.076823 20.076823h40.035547c10.983204 0 19.958725-8.975521 19.958725-20.076823v-59.994272h100.029819c10.983203 0 19.958724-8.857422 19.958724-19.958724v-40.035547c0-11.101303-8.975521-19.958724-19.958724-19.958724zm479.954173 0c-11.101302 0-19.958724 8.857421-19.958724 19.958724v40.035547c0 11.101302 8.857422 19.958724 19.958724 19.958724h100.029819v59.994272c0 11.101302 8.857422 20.076823 19.958724 20.076823h40.035547c11.101303 0 19.958725-8.975521 19.958725-20.076823v-119.988543c0-11.101303-8.857422-19.958724-19.958725-19.958724zm-479.954173 400.001176c-11.101302 0-20.076823 8.857422-20.076823 19.958725v119.988543c0 11.101302 8.975521 20.076823 20.076823 20.076823h160.024091c10.983203 0 19.958724-8.975521 19.958724-20.076823v-39.917449c0-11.101302-8.975521-20.076823-19.958724-20.076823h-100.029819v-59.994271c0-11.101303-8.975521-19.958725-19.958725-19.958725zm599.942716 0c-11.101302 0-19.958724 8.857422-19.958724 19.958725v59.994271h-100.029819c-11.101302 0-19.958724 8.975521-19.958724 20.076823v39.917449c0 11.101302 8.857422 20.076823 19.958724 20.076823h160.02409c11.101303 0 19.958725-8.975521 19.958725-20.076823v-119.988543c0-11.101303-8.857422-19.958725-19.958725-19.958725zm0 0" fill="url(#l)" stroke="#212121" stroke-linecap="round" stroke-linejoin="round" stroke-width="11.338583" transform="scale(.0330761)"/></svg>

<?xml version="1.0" encoding="UTF-8"?>
<svg xmlns="http://www.w3.org/2000/svg" xmlns:xlink="http://www.w3.org/1999/xlink" width="64pt" height="64pt" viewBox="0 0 64 64" version="1.1">
<defs>
<linearGradient id="linear0" gradientUnits="userSpaceOnUse" x1="254" y1="233.5" x2="254" y2="254.66667" gradientTransform="matrix(0.125012,0,0,0.125012,1.323041,26.877569)">
<stop offset="0" style="stop-color:rgb(0%,0%,0%);stop-opacity:0.27451;"/>
<stop offset="1" style="stop-color:rgb(0%,0%,0%);stop-opacity:0;"/>
</linearGradient>
<radialGradient id="radial0" gradientUnits="userSpaceOnUse" cx="450.90894" cy="189.57936" fx="450.90894" fy="189.57936" r="21.166656" gradientTransform="matrix(0.000000348341,-0.156265,-0.281277,-0.000000203077,98.969136,127.190669)">
<stop offset="0" style="stop-color:rgb(0%,0%,0%);stop-opacity:0.313725;"/>
<stop offset="0.222222" style="stop-color:rgb(0%,0%,0%);stop-opacity:0.27451;"/>
<stop offset="1" style="stop-color:rgb(0%,0%,0%);stop-opacity:0;"/>
</radialGradient>
<radialGradient id="radial1" gradientUnits="userSpaceOnUse" cx="450.90894" cy="189.57936" fx="450.90894" fy="189.57936" r="21.166656" gradientTransform="matrix(-0.000000348341,0.156265,0.281277,0.000000203077,-36.786104,-15.054957)">
<stop offset="0" style="stop-color:rgb(0%,0%,0%);stop-opacity:0.313725;"/>
<stop offset="0.222222" style="stop-color:rgb(0%,0%,0%);stop-opacity:0.27451;"/>
<stop offset="1" style="stop-color:rgb(0%,0%,0%);stop-opacity:0;"/>
</radialGradient>
<radialGradient id="radial2" gradientUnits="userSpaceOnUse" cx="450.90894" cy="189.57936" fx="450.90894" fy="189.57936" r="21.166656" gradientTransform="matrix(-0.000000348341,-0.156265,0.281277,-0.000000203077,-36.786104,127.190669)">
<stop offset="0" style="stop-color:rgb(0%,0%,0%);stop-opacity:0.313725;"/>
<stop offset="0.222222" style="stop-color:rgb(0%,0%,0%);stop-opacity:0.27451;"/>
<stop offset="1" style="stop-color:rgb(0%,0%,0%);stop-opacity:0;"/>
</radialGradient>
<radialGradient id="radial3" gradientUnits="userSpaceOnUse" cx="450.90894" cy="189.57936" fx="450.90894" fy="189.57936" r="21.166656" gradientTransform="matrix(0.000000348341,0.156265,-0.281277,0.000000203077,98.969133,-15.054959)">
<stop offset="0" style="stop-color:rgb(0%,0%,0%);stop-opacity:0.313725;"/>
<stop offset="0.222222" style="stop-color:rgb(0%,0%,0%);stop-opacity:0.27451;"/>
<stop offset="1" style="stop-color:rgb(0%,0%,0%);stop-opacity:0;"/>
</radialGradient>
<linearGradient id="linear1" gradientUnits="userSpaceOnUse" x1="940" y1="1695.1182" x2="940" y2="175.11812" gradientTransform="matrix(0.0330761,0,0,0.0330761,0,0)">
<stop offset="0" style="stop-color:rgb(38.039216%,38.039216%,38.039216%);stop-opacity:1;"/>
<stop offset="1" style="stop-color:rgb(45.882353%,45.882353%,45.882353%);stop-opacity:1;"/>
</linearGradient>
<linearGradient id="linear2" gradientUnits="userSpaceOnUse" x1="249.18942" y1="233.5" x2="249.18942" y2="254.66669" gradientTransform="matrix(0.0597883,0,0,0.218771,30.084845,-33.052579)">
<stop offset="0" style="stop-color:rgb(0%,0%,0%);stop-opacity:0.27451;"/>
<stop offset="1" style="stop-color:rgb(0%,0%,0%);stop-opacity:0;"/>
</linearGradient>
<linearGradient id="linear3" gradientUnits="userSpaceOnUse" x1="338.66666" y1="233.5" x2="338.66666" y2="-168.66667" gradientTransform="matrix(0.125012,0,0,0.125012,0,26.877566)">
<stop offset="0" style="stop-color:rgb(25.882353%,25.882353%,25.882353%);stop-opacity:1;"/>
<stop offset="1" style="stop-color:rgb(38.039216%,38.039216%,38.039216%);stop-opacity:1;"/>
</linearGradient>
<linearGradient id="linear4" gradientUnits="userSpaceOnUse" x1="254" y1="233.5" x2="254" y2="-168.66667" gradientTransform="matrix(3.779528,0,0,3.779528,0,812.59843)">
<stop offset="0" style="stop-color:rgb(25.882353%,25.882353%,25.882353%);stop-opacity:1;"/>
<stop offset="1" style="stop-color:rgb(38.039216%,38.039216%,38.039216%);stop-opacity:1;"/>
</linearGradient>
</defs>
<g id="surface1">
<path style=" stroke:none;fill-rule:nonzero;fill:url(#linear0);" d="M 15.875 56.066406 L 46.304688 56.066406 L 46.304688 58.714844 L 15.875 58.714844 Z M 15.875 56.066406 "/>
<path style=" stroke:none;fill-rule:nonzero;fill:url(#radial0);" d="M 46.304688 56.066406 L 51.597656 56.066406 L 51.597656 53.421875 L 46.304688 53.421875 Z M 46.304688 56.066406 "/>
<path style=" stroke:none;fill-rule:nonzero;fill:url(#radial1);" d="M 15.875 56.066406 L 10.585938 56.066406 L 10.585938 58.714844 L 15.875 58.714844 Z M 15.875 56.066406 "/>
<path style=" stroke:none;fill-rule:nonzero;fill:url(#radial2);" d="M 15.875 56.066406 L 10.585938 56.066406 L 10.585938 53.421875 L 15.875 53.421875 Z M 15.875 56.066406 "/>
<path style=" stroke:none;fill-rule:nonzero;fill:url(#radial3);" d="M 46.304688 56.066406 L 51.597656 56.066406 L 51.597656 58.714844 L 46.304688 58.714844 Z M 46.304688 56.066406 "/>
<path style=" stroke:none;fill-rule:nonzero;fill:url(#linear1);" d="M 37.085938 5.792969 L 13.230469 5.792969 C 11.765625 5.792969 10.585938 6.972656 10.585938 8.4375 L 10.585938 53.421875 C 10.585938 54.886719 11.765625 56.066406 13.230469 56.066406 L 48.953125 56.066406 C 50.417969 56.066406 51.597656 54.886719 51.597656 53.421875 L 51.597656 20.308594 Z M 37.085938 5.792969 "/>
<path style=" stroke:none;fill-rule:nonzero;fill:url(#linear2);" d="M 37.046875 18.03125 L 49.613281 18.03125 L 51.597656 20.015625 L 51.597656 22.660156 L 37.046875 22.660156 Z M 37.046875 18.03125 "/>
<path style=" stroke:none;fill-rule:nonzero;fill:rgb(0%,0%,0%);fill-opacity:0.235294;" d="M 10.585938 52.394531 L 10.585938 53.421875 C 10.585938 54.886719 11.765625 56.066406 13.230469 56.066406 L 48.953125 56.066406 C 50.417969 56.066406 51.597656 54.886719 51.597656 53.421875 L 51.597656 52.394531 C 51.597656 53.859375 50.417969 55.039062 48.953125 55.039062 L 13.230469 55.039062 C 11.765625 55.039062 10.585938 53.859375 10.585938 52.394531 Z M 10.585938 52.394531 "/>
<path style=" stroke:none;fill-rule:nonzero;fill:rgb(100%,100%,100%);fill-opacity:0.313725;" d="M 13.230469 5.792969 C 11.765625 5.792969 10.585938 6.972656 10.585938 8.4375 L 10.585938 9.429688 C 10.585938 7.964844 11.765625 6.785156 13.230469 6.785156 L 37.085938 6.785156 L 51.597656 21.300781 L 51.597656 20.308594 L 37.085938 5.792969 Z M 13.230469 5.792969 "/>
<path style=" stroke:none;fill-rule:nonzero;fill:url(#linear3);" d="M 51.597656 20.308594 L 37.085938 5.792969 L 37.085938 17.660156 C 37.085938 19.125 38.265625 20.308594 39.730469 20.308594 Z M 51.597656 20.308594 "/>
<path style=" stroke:none;fill-rule:nonzero;fill:rgb(0%,0%,0%);fill-opacity:0.235294;" d="M 37.085938 17.039062 L 37.085938 17.660156 C 37.085938 19.125 38.265625 20.308594 39.730469 20.308594 L 51.597656 20.308594 L 50.976562 19.683594 L 39.730469 19.683594 C 38.265625 19.683594 37.085938 18.503906 37.085938 17.039062 Z M 37.085938 17.039062 "/>
<path style=" stroke:none;fill-rule:nonzero;fill:rgb(100%,100%,100%);fill-opacity:0.392157;" d="M 37.085938 5.792969 L 37.085938 6.785156 L 50.605469 20.308594 L 51.597656 20.308594 Z M 37.085938 5.792969 "/>
<path style=" stroke:none;fill-rule:nonzero;fill:rgb(12.941176%,12.941176%,12.941176%);fill-opacity:1;" d="M 37.082031 5.605469 C 36.980469 5.605469 36.898438 5.691406 36.898438 5.792969 L 36.898438 17.660156 C 36.898438 19.226562 38.164062 20.496094 39.730469 20.496094 L 51.597656 20.496094 C 51.675781 20.492188 51.742188 20.449219 51.773438 20.378906 C 51.800781 20.308594 51.785156 20.226562 51.730469 20.175781 L 37.214844 5.660156 C 37.179688 5.625 37.132812 5.605469 37.082031 5.605469 Z M 37.273438 6.246094 L 51.144531 20.117188 L 39.730469 20.117188 C 38.363281 20.117188 37.273438 19.027344 37.273438 17.660156 Z M 37.273438 6.246094 "/>
<path style=" stroke:none;fill-rule:nonzero;fill:rgb(12.941176%,12.941176%,12.941176%);fill-opacity:1;" d="M 13.230469 5.605469 C 11.664062 5.605469 10.398438 6.871094 10.398438 8.4375 L 10.398438 53.421875 C 10.398438 54.988281 11.664062 56.253906 13.230469 56.253906 L 48.953125 56.253906 C 50.519531 56.253906 51.785156 54.988281 51.785156 53.421875 L 51.785156 20.308594 C 51.785156 20.257812 51.765625 20.210938 51.730469 20.175781 L 37.214844 5.660156 C 37.179688 5.625 37.132812 5.605469 37.085938 5.605469 Z M 13.230469 5.980469 L 37.007812 5.980469 L 51.410156 20.382812 L 51.410156 53.421875 C 51.410156 54.785156 50.316406 55.878906 48.953125 55.878906 L 13.230469 55.878906 C 11.863281 55.878906 10.773438 54.785156 10.773438 53.421875 L 10.773438 8.4375 C 10.773438 7.074219 11.863281 5.980469 13.230469 5.980469 Z M 13.230469 5.980469 "/>
<path style="fill-rule:nonzero;fill:url(#linear4);stroke-width:11.338583;stroke-linecap:round;stroke-linejoin:round;stroke:rgb(12.941176%,12.941176%,12.941176%);stroke-opacity:1;stroke-miterlimit:4;" d="M 620.019539 695.130478 C 608.918237 695.130478 599.942716 703.987899 599.942716 715.089202 L 599.942716 835.077745 C 599.942716 846.179047 608.918237 855.154568 620.019539 855.154568 L 660.055086 855.154568 C 671.03829 855.154568 680.013811 846.179047 680.013811 835.077745 L 680.013811 775.083473 L 780.04363 775.083473 C 791.026833 775.083473 800.002354 766.226051 800.002354 755.124749 L 800.002354 715.089202 C 800.002354 703.987899 791.026833 695.130478 780.04363 695.130478 Z M 1099.973712 695.130478 C 1088.87241 695.130478 1080.014988 703.987899 1080.014988 715.089202 L 1080.014988 755.124749 C 1080.014988 766.226051 1088.87241 775.083473 1099.973712 775.083473 L 1200.003531 775.083473 L 1200.003531 835.077745 C 1200.003531 846.179047 1208.860953 855.154568 1219.962255 855.154568 L 1259.997802 855.154568 C 1271.099105 855.154568 1279.956527 846.179047 1279.956527 835.077745 L 1279.956527 715.089202 C 1279.956527 703.987899 1271.099105 695.130478 1259.997802 695.130478 Z M 620.019539 1095.131654 C 608.918237 1095.131654 599.942716 1103.989076 599.942716 1115.090379 L 599.942716 1235.078922 C 599.942716 1246.180224 608.918237 1255.155745 620.019539 1255.155745 L 780.04363 1255.155745 C 791.026833 1255.155745 800.002354 1246.180224 800.002354 1235.078922 L 800.002354 1195.161473 C 800.002354 1184.060171 791.026833 1175.08465 780.04363 1175.08465 L 680.013811 1175.08465 L 680.013811 1115.090379 C 680.013811 1103.989076 671.03829 1095.131654 660.055086 1095.131654 Z M 1219.962255 1095.131654 C 1208.860953 1095.131654 1200.003531 1103.989076 1200.003531 1115.090379 L 1200.003531 1175.08465 L 1099.973712 1175.08465 C 1088.87241 1175.08465 1080.014988 1184.060171 1080.014988 1195.161473 L 1080.014988 1235.078922 C 1080.014988 1246.180224 1088.87241 1255.155745 1099.973712 1255.155745 L 1259.997802 1255.155745 C 1271.099105 1255.155745 1279.956527 1246.180224 1279.956527 1235.078922 L 1279.956527 1115.090379 C 1279.956527 1103.989076 1271.099105 1095.131654 1259.997802 1095.131654 Z M 1219.962255 1095.131654 " transform="matrix(0.0330761,0,0,0.0330761,0,0)"/>
</g>
</svg>
